X:1
T:Berceuse #1
T:Dorothea Baker 
%%score { ( 1 3 ) | 2 }
L:1/8
Q:1/4=130
M:4/4
K:G
V:1 treble nm="Piano" snm="Pno."
V:3 treble 
V:2 treble 
V:1
|:!pp! z8 | z8 | z8 | z8 :| !>!d8 | z8 | z8 | !>!^c6 !>!=c2- | c8 | z8 | z8 | z8 | !>!^A8 | z8 | %14
 z8 | z8 | !>!^G8 | z8 | !>!=G8 | z8 | z8 | z8 | !>!a8 | z8 | !>!^g8 | z8 | !>!=g8 | z8 | !>!^d8 | %29
 z8 | !>!^c8 | z8 | !>!=c8- | c6 !>!d2 | !>!_B8 | z8 | !>!A8 | z4 !>!A4 | !>!^G8 | z4 !>!=F4 | %40
 !>!E8 | z8 |!<(! z8 | z6!<)! !>![be']2 |!>(! !>![ad']8 | z8 | _b8 | z8!>)! | [fb]8 | z8 |!<(! z8 | %51
 z6!<)! !>![be'g']2 |!>(! !>![ad'f']8 | z8 | z8 | [fad']8!>)! | [gbe']8 | z8 |!<(! ^g8 | %59
 z6!<)! !>![be'g']2 |!>(! !>![ad'f']8 | z8 | z8 | [fad']8!>)! | [be']8- | [be']8- |!<(! [be']8 | %67
 z6 !>![e'g'b']2!<)! |!>(! !>![d'f'a']8 | z8 | [_bd'f']8 | z8!>)! | [ae'g']8 | z8 |!>(! z8 | %75
 [g_b]8 | [=f_a]8 | z8 | z8 | z4 [=f_a]4!>)! | [^f=a]8 | z8 | f8- | f8- | f8 | z8 | z8 | !>!A8 | %88
 !>!B8 | z8 | z8 | z8 | z8 | !>![GB]8 | !>![FA]8 | !>![=FG]8 | !>![EA]8 | z6 !>!=F2 | !>![EG]8 | %99
 z8 | z4 !>![GB]4- | [GB]8 | !>![FA]8 |!<(! !>![=FA]8 | !>![E^G]8 | z6!<)! !>![=F_Ace]2 | %106
 !>![GBd]8 | z6 !>![=F_Ace]2 | !>![GBd]8 | z6 !>![=F_Ace]2 | !>![GBd]8 | z6 !>![=F_Ace]2 | %112
!>(! !>![GBd]8 | z6 [=F_Acf]2 | [GBdf]8 | z6 [ABdg]2!>)! | [Bdf]8 | z8 | z8 | z8 | z8 | z8 | z8 | %123
 z8 | z8 | z8 | z8 | z8 | z8 | z8 |!<(! z8 | z8 | z8 | z6 !>![EGe]2!<)! |!>(! !>![EGd]8 | z8 | z8 | %137
 z8!>)! | [DGB]8 | z6 [CEA]2 | [B,DG]8 | [DF]8 |!>(! [G,B,E]8 | z8 | z8 | z8!>)! | z4 [DGB]4 | %147
 [CEA]8 | z4 [DGB]4 | A6 GF | [G,B,E]8 | [G,A,E]8 |!>(! [G,B,E]8 | z8 | z8 | z8!>)! | z8 |] %157
V:2
|:!ped! E2 B2 e2 B2 | E2 B e2 B E2 | E2 B2 e2 B2 | E2 B e2 B E2 :| E2 B2 e2 B2 | E2 B e2 B E2 | %6
 E2 B2 e2 B2 | E2 B e2 B E2 | E2 B2 e2 B2 | E2 B e2 B E2 | E2 B2 e2 B2 | E2 B e2 B E2 | %12
 E2 B2 e2 B2 | E2 B e2 B E2 | E2 B2 e2 B2 | E2 B e2 B E2 | E2 B2 e2 B2 | E2 B e2 B E2 | %18
 E2 B2 e2 B2 | E2 B e2 B E2 | E2 B2 e2 B2 | E2 B e2 B E2 | E2 B2 e2 B2 | E2 B e2 B E2 | %24
 E2 B2 e2 B2 | E2 B e2 B E2 | E2 B2 e2 B2 | E2 B e2 B E2 | E2 B2 e2 B2 | E2 B e2 B E2 | %30
 E2 B2 e2 B2 | E2 B e2 B E2 | E2 B2 e2 B2 | E2 B e2 B E2 | E2 B2 e2 B2 | E2 B e2 B E2 | %36
 E2 B2 e2 B2 | E2 B e2 B E2 | E2 B2 e2 B2 | E2 B e2 B E2 | E2 B2 e2 B2 | E2 B e2 B E2 | %42
 E2 B2 e2 B2 | E2 B e2 B E2 | E2 B2 e2 B2 | E2 B e2 B E2 | E2 B2 e2 B2 | E2 B e2 B E2 | %48
 E2 B2 e2 B2 | E2 B e2 B E2 | E2 B2 e2 B2 | E2 B e2 B E2 | E2 B2 e2 B2 | E2 B e2 B E2 | %54
 E2 B2 e2 B2 | E2 B e2 B E2 | E2 B2 e2 B2 | E2 B e2 B E2 | E2 B2 e2 B2 | E2 B e2 B E2 | %60
 E2 B2 e2 B2 | E2 B e2 B E2 | E2 B2 e2 B2 | E2 B e2 B E2 | E2 B2 e2 B2 | E2 B e2 B E2 | %66
 E2 B2 e2 B2 | E2 B e2 B E2 | E2 B2 e2 B2 | E2 B e2 B E2 | E2 B2 e2 B2 | E2 B e2 B E2 | %72
 E2 B2 e2 B2 | E2 B e2 B E2 | E2 B2 e2 B2 | E2 B e2 B E2 | E2 B2 e2 B2 | E2 B e2 B E2 | %78
 E2 B2 e2 B2 | E2 B e2 B E2 | E2 B2 e2 B2 | E2 B e2 B E2 | E2 B2 e2 B2 | E2 B e2 B E2 | %84
 E2 B2 e2 B2 | E2 B e2 B E2 | E2 B2 e2 B2 | E2 B e2 B E2 | E2 B2 e2 B2 | E2 B e2 B E2 | %90
 E2 B2 e2 B2 | E2 B, E,2 B, E2 |[K:bass] G,2 B,2 E2 B,2 | G, B,2 E2 B, G,2 | F,2 B,2 E2 B,2 | %95
 =F, B,2 E2 B, F,2 | E,2 B,2 E2 B,2 | E, B,2 E2 B, E,2 | E,2 B,2 E2 B,2 | E, B,2 E2 B, E,2 | %100
 G,2 B,2 E2 B,2 | G, B,2 E2 B, G,2 | F,2 B,2 E2 B,2 | =F, B,2 E2 B, F,2 | E,2 B,2 E2 B,2 | %105
 E, B,2 E2 B, E,2 | E,2 B,2 E2 B,2 | E, B,2 E2 B, E,2 | E,2 B,2 E2 B,2 | E, B,2 E2 B, E,2 | %110
 E,2 B,2 E2 B,2 | E, B,2 E2 B, E,2 | E,2 B,2 E2 B,2 | E, B,2 E2 B, E,2 | E,2 B,2 E2 B,2 | %115
 E, B,2 E2 B, E,2 | E,2 B,2 E2 B,2 | E, B,2 E2 B, E,2 | E,2 B,2 E2 B,2 | E, B,2 E2 B, E,2 | %120
 E,2 B,2 E2 B,2 | E, B,2 E2 B, E,2 | [A,,E,G,]2 E,2 G,2 E,2 | A,, E,2 G,2 E, A,,2 | %124
 A,,2 E,2 G,2 E,2 | A,, E,2 G,2 E, A,,2 | E,,2 B,,2 G,2 B,,2 | E,, B,,2 F,2 B,, E,,2 | %128
 E,,2 B,,2 G,2 B,,2 | E,, B,,2 F,2 B,, E,,2 | A,,2 E,2 A,2 E,2 | A,, E,2 G,2 E, A,,2 | %132
 A,,2 E,2 A,2 E,2 | A,, E,2 G,2 E, A,,2 | E,,2 B,,2 G,2 B,,2 | E,, B,,2 F,2 B,, E,,2 | %136
 E,,2 B,,2 E,2 B,,2 | E,, B,,2 =F,2 B,, E,,2 | A,,2 E,2 A,2 E,2 | A,, E,2 G,2 E, A,,2 | %140
 A,,2 E,2 A,2 E,2 | A,, E,2 G,2 E, A,,2 | E,,2 B,,2 G,2 B,,2 | E,, B,,2 F,2 B,, E,,2 | %144
 E,,2 B,,2 F,2 B,,2 | E,, B,,2 =F,2 B,, E,,2 | A,,2 E,2 G,2 E,2 | A,, E,2 G,2 E, A,,2 | %148
 A,,2 E,2 G,2 E,2 | A,, E,2 G,2 E, A,,2 | E,,2 B,,2 F,2 B,,2 | E,, B,,2 A,2 B,, E,,2 | %152
 E,,2 B,,2 G,2 B,,2 | E,, B,,2 G,2 B,, E,,2 | E,,2 B,,2 G,2 B,,2 | E,, B,,2 G,2 B,, E,,2 | %156
 !fermata!E,,8!ped-up! |] %157
V:3
|: x8 | x8 | x8 | x8 :| x8 | x8 | x8 | x8 | x8 | x8 | x8 | x8 | x8 | x8 | x8 | x8 | x8 | x8 | x8 | %19
 x8 | x8 | x8 | x8 | x8 | x8 | x8 | x8 | x8 | x8 | x8 | x8 | x8 | x8 | x8 | x8 | x8 | x8 | x8 | %38
 x8 | x8 | x8 | x8 | x8 | x8 | x8 | x8 | x8 | x8 | x8 | x8 | x8 | x8 | x8 | x8 | x8 | x8 | x8 | %57
 x8 | x8 | x8 | x8 | x8 | x8 | x8 | ^g8- | g8 | =g8 | x8 | x8 | x8 | x8 | x8 | x8 | x8 | x8 | x8 | %76
 x8 | x8 | x8 | x8 | x8 | x8 | ^d8- | d8 | =d8 | x8 | x8 | x8 | x8 | x8 | x8 | x8 | x8 | x8 | x8 | %95
 x8 | x8 | x8 | x8 | x8 | x8 | x8 | x8 | x8 | x8 | x8 | x8 | x8 | x8 | x8 | x8 | x8 | x8 | x8 | %114
 x8 | x8 | x8 | x8 | x8 | x8 | x8 | x8 | x8 | x8 | x8 | x8 | x8 | x8 | x8 | x8 | x8 | x8 | x8 | %133
 x8 | x8 | x8 | x8 | x8 | x8 | x8 | x8 | B,6 A,2 | x8 | x8 | x8 | x8 | x8 | x8 | x8 | [CE]8 | x8 | %151
 x8 | x8 | x8 | x8 | x8 | x8 |] %157

